X: 113
T: 3 La M\'enagere
T: la M\'enag\`ere
B: Robert Landrin "Potpourri fran\,cois des contre-danse ancienne tel quil se danse chez la Reine ..." 1760 p.11 #3 dance 04 # 3
S: http://memory.loc.gov/cgi-bin/query/D?musdibib:2:./temp/~ammem_EbRS:
Z: 2014 John Chambers <jc:trillian.mit.edu>
M: 2/2
L: 1/8
K: D
% - - - - - - - - - - - - - - - - - - - - - - - - -
defg |\
a2a2 g2a2 | e2f2 !+!f4 |\
e2f2 !+!f4 | "4f"e4 :: f4 |\
e2d2 ^c2d2 | A4 efge |
f2d2 efge | f2d2 f4 |\
e2d2 ^c2d2 | [A4D4] defg |\
a2gf !+!e3d | d4 :|
% - - - - - - - - - - - - - - - - - - - - - - - - -

%%sep 1 1 500
%%sep 1 1 500
